icons/skype.svg

<svg width="24" height="24" viewBox="0 0 24 24" fill="none" xmlns="http://www.w3.org/2000/svg">
<path fill-rule="evenodd" clip-rule="evenodd" d="M3.00002 6.50049C2.99997 5.80942 3.20449 5.1338 3.58782 4.55878C3.97116 3.98377 4.51613 3.53511 5.15406 3.26935C5.79199 3.00359 6.49432 2.93263 7.17251 3.06541C7.85071 3.1982 8.47442 3.52878 8.96502 4.01549L9.37202 4.41949L9.92702 4.27149C11.2841 3.90681 12.7134 3.90605 14.0709 4.26927C15.4284 4.63249 16.6663 5.34689 17.66 6.34056C18.6536 7.33423 19.368 8.57212 19.7312 9.92963C20.0945 11.2871 20.0937 12.7164 19.729 14.0735L19.581 14.6285L19.985 15.0355C20.6414 15.6919 21.0102 16.5822 21.0102 17.5105C21.0102 18.4388 20.6414 19.3291 19.985 19.9855C19.3286 20.6419 18.4383 21.0107 17.51 21.0107C16.5817 21.0107 15.6914 20.6419 15.035 19.9855L14.628 19.5815L14.073 19.7295C12.7158 20.0944 11.2865 20.0953 9.92882 19.7322C8.57116 19.3691 7.33311 18.6547 6.3393 17.661C5.3455 16.6673 4.631 15.4293 4.26774 14.0717C3.90447 12.7141 3.90526 11.2847 4.27002 9.92749L4.41802 9.37249L4.01402 8.96549C3.36284 8.31059 2.99815 7.42404 3.00002 6.50049V6.50049ZM6.50002 1.00049C5.46314 1.00053 4.44738 1.29368 3.56992 1.84612C2.69245 2.39856 1.98902 3.18779 1.54076 4.12278C1.09251 5.05777 0.917678 6.10042 1.03645 7.13048C1.15522 8.16055 1.56274 9.13605 2.21202 9.94449C2.07081 10.6207 1.99976 11.3097 2.00002 12.0005C2.00002 17.5235 6.47702 22.0005 12 22.0005C12.704 22.0005 13.392 21.9275 14.056 21.7885C15.1128 22.6367 16.4455 23.065 17.7985 22.9912C19.1516 22.9174 20.4298 22.3466 21.388 21.3884C22.3462 20.4303 22.9169 19.1521 22.9907 17.799C23.0645 16.4459 22.6363 15.1132 21.788 14.0565C21.928 13.3925 22 12.7045 22 12.0005C22 6.47749 17.523 2.00049 12 2.00049C11.296 2.00049 10.608 2.07349 9.94402 2.21249C8.96831 1.4267 7.75281 0.998947 6.50002 1.00049ZM10.642 9.33049C10.775 9.07749 11.229 8.75049 11.932 8.75049C13.139 8.75049 13.804 9.22249 14.11 9.45649C14.3209 9.61748 14.587 9.68811 14.85 9.65286C15.1129 9.6176 15.351 9.47934 15.512 9.26849C15.673 9.05764 15.7436 8.79148 15.7084 8.52856C15.6731 8.26563 15.5349 8.02748 15.324 7.86649C14.834 7.49249 13.747 6.75049 11.932 6.75049C10.664 6.75049 9.42502 7.34449 8.82402 8.49049C8.62006 8.87236 8.51983 9.30105 8.53334 9.73377C8.54685 10.1665 8.67363 10.5881 8.90102 10.9565C9.33002 11.6695 10.073 12.1785 10.949 12.4145L12.503 12.8325C13.101 12.9935 14.01 13.5495 13.683 14.2985C13.485 14.7505 12.786 15.2505 11.756 15.2505C10.866 15.2505 10.08 15.0965 9.35602 14.5445C9.14492 14.3873 8.88034 14.3196 8.61968 14.3562C8.35901 14.3928 8.12329 14.5307 7.96363 14.7399C7.80398 14.9492 7.73327 15.213 7.76686 15.4741C7.80044 15.7351 7.9356 15.9724 8.14302 16.1345C9.11302 16.8745 10.12 17.2505 11.535 17.2505C13.114 17.2505 14.837 16.6525 15.515 15.1005C15.915 14.1855 15.783 13.2265 15.285 12.4575C14.516 11.2735 13.194 10.9305 11.913 10.5995C11.7648 10.5613 11.6168 10.5223 11.469 10.4825C10.943 10.3415 10.329 9.92949 10.642 9.33049Z" fill="black"/>
</svg>

<svg
  width="24"
  height="24"
  viewBox="0 0 24 24"
  xmlns="http://www.w3.org/2000/svg"
>
  <path
    fill-rule="evenodd"
    clip-rule="evenodd"
    d="M3 6.5a3.5 3.5 0 0 1 5.965-2.485l.407.404.555-.148a8 8 0 0 1 9.802 9.802l-.148.556.404.407a3.5 3.5 0 1 1-4.95 4.95l-.407-.405-.555.149A8 8 0 0 1 4.27 9.927l.148-.555-.404-.407A3.486 3.486 0 0 1 3 6.5zM6.5 1a5.5 5.5 0 0 0-4.288 8.944A10.04 10.04 0 0 0 2 12c0 5.523 4.477 10 10 10 .704 0 1.392-.073 2.056-.212a5.5 5.5 0 0 0 7.732-7.732c.14-.663.212-1.351.212-2.055 0-5.524-4.477-10-10-10-.704 0-1.392.072-2.056.211A5.48 5.48 0 0 0 6.5 1zm4.142 8.33c.133-.253.587-.58 1.29-.58 1.207 0 1.872.472 2.178.706a1 1 0 0 0 1.214-1.59c-.49-.374-1.577-1.116-3.392-1.116-1.268 0-2.507.594-3.108 1.74a2.475 2.475 0 0 0 .077 2.466c.429.713 1.172 1.223 2.048 1.459l1.554.418c.598.16 1.507.716 1.18 1.466-.198.452-.897.952-1.927.952-.89 0-1.676-.154-2.4-.707a1 1 0 0 0-1.213 1.59c.97.74 1.977 1.116 3.392 1.116 1.579 0 3.302-.598 3.98-2.15.4-.915.268-1.873-.23-2.643-.769-1.184-2.091-1.527-3.372-1.857a42.614 42.614 0 0 1-.444-.117c-.526-.142-1.14-.554-.827-1.153z"
  />
</svg>
